src/images/clients/depop.svg

<svg width="152" height="40" viewBox="0 0 152 40" fill="none" xmlns="http://www.w3.org/2000/svg">
<path d="M0.609863 20.203C0.609863 13.8575 5.13722 9.95699 12.3765 9.95699H19.8716V0.654037H29.2522V29.8786H12.3416C5.13711 29.8786 0.609863 26.1294 0.609863 20.203ZM10.5066 19.8887C10.5066 22.3221 11.9798 23.5912 14.81 23.5912H19.8212V16.1395H14.8565C12.0261 16.1395 10.5066 17.4203 10.5066 19.8887ZM89.9135 19.877C89.9135 26.2226 85.3862 30.1231 78.1469 30.1231H70.6518V39.426H61.2712V10.2015H78.1818C85.3863 10.2015 89.9135 13.9506 89.9135 19.877ZM80.0168 20.1914C80.0168 17.758 78.5418 16.4888 75.708 16.4888H70.7022V23.9405H75.673C78.507 23.9405 80.0168 22.6598 80.0168 20.1914ZM151.39 19.877C151.39 26.2226 146.862 30.1231 139.623 30.1231H132.128V39.426H122.747V10.2015H139.658C146.863 10.2015 151.39 13.9506 151.39 19.877ZM141.493 20.1914C141.493 17.758 140.018 16.4888 137.184 16.4888H132.179V23.9405H137.149C139.983 23.9405 141.493 22.6598 141.493 20.1914ZM92.7079 20.0517C92.7079 12.9498 98.3898 9.1536 106.214 9.1536C114.038 9.1536 119.72 12.9498 119.72 20.0517C119.72 27.1532 114.038 31.0429 106.214 31.0429C98.3898 31.0313 92.7079 27.1532 92.7079 20.0517ZM110.522 19.9411C110.522 16.4792 108.787 14.7424 106.156 14.7424C103.524 14.7424 101.79 16.4792 101.79 19.9411C101.79 23.3563 103.524 25.2213 106.156 25.2213C108.799 25.2096 110.522 23.3563 110.522 19.9411ZM58.1275 20.4373C58.1275 13.3356 53.5598 9.03717 45.308 9.03717C37.3816 9.03717 32.2795 13.3356 32.2795 20.0636C32.2795 26.8735 37.3352 30.9265 45.7612 30.9265C51.0612 30.9265 55.3381 28.9408 57.5928 25.7169L50.8751 23.264C49.7129 24.5372 47.9579 25.238 46.11 25.238C43.3323 25.238 41.403 24.1168 40.9032 22.2128C40.8682 22.0845 40.845 21.9676 40.8219 21.8274H58.1275V20.4373ZM40.8955 17.4202C41.1169 15.1132 42.7142 13.6944 45.4887 13.6944C48.2636 13.6944 49.8608 15.194 49.8608 17.4202H40.8955Z" fill="black"/>
</svg>

<svg xmlns="http://www.w3.org/2000/svg" width="152" height="40" fill="none" viewBox="0 0 152 40"><path fill="#000" d="M.61 20.203c0-6.345 4.527-10.246 11.766-10.246h7.496V.654h9.38v29.225h-16.91C5.137 29.879.61 26.129.61 20.203Zm9.897-.314c0 2.433 1.473 3.702 4.303 3.702h5.011V16.14h-4.965c-2.83 0-4.35 1.28-4.35 3.749Zm79.406-.012c0 6.346-4.527 10.246-11.766 10.246h-7.495v9.303h-9.38V10.201h16.91c7.204 0 11.731 3.75 11.731 9.676Zm-9.896.314c0-2.433-1.475-3.702-4.309-3.702h-5.006v7.451h4.971c2.834 0 4.344-1.28 4.344-3.749Zm71.373-.314c0 6.346-4.528 10.246-11.767 10.246h-7.495v9.303h-9.381V10.201h16.911c7.205 0 11.732 3.75 11.732 9.676Zm-9.897.314c0-2.433-1.475-3.702-4.309-3.702h-5.005v7.451h4.97c2.834 0 4.344-1.28 4.344-3.749Zm-48.785-.14c0-7.101 5.682-10.897 13.506-10.897s13.506 3.796 13.506 10.898c0 7.101-5.682 10.99-13.506 10.99-7.824-.01-13.506-3.889-13.506-10.99Zm17.814-.11c0-3.462-1.735-5.199-4.366-5.199-2.632 0-4.366 1.737-4.366 5.2 0 3.414 1.734 5.28 4.366 5.28 2.643-.012 4.366-1.866 4.366-5.28Zm-52.395.496c0-7.101-4.567-11.4-12.819-11.4-7.926 0-13.029 4.299-13.029 11.027 0 6.81 5.056 10.863 13.482 10.863 5.3 0 9.577-1.986 11.832-5.21l-6.718-2.453c-1.162 1.273-2.917 1.974-4.765 1.974-2.778 0-4.707-1.121-5.207-3.025a3.67 3.67 0 0 1-.081-.386h17.305v-1.39ZM40.895 17.42c.222-2.307 1.82-3.726 4.594-3.726 2.775 0 4.372 1.5 4.372 3.726h-8.965Z"/></svg>
